X: 43
T: Lucy Campbell
T: Strathspey, A
L: 1/16
M: C
K: A
|: f1| e1A3 c3A1 e1A3 c3A1| e1A3 c3e1 f3B1 B3f1| e1A3 c3A1 e3f1 g3e1| (3a2g2f2 (3f2e2c2 e3A1 A3:| 
|: e1| a1f3 (3f2e2c2 e3f1 g3e1| (3a2g2f2 (3f2e2c2 f3B1 B3f1| a1f3 (3f2e2c2 e3f1 g3e1| (3a2g2f2 (3f2e2c2 e3A1 A3:| 
|: B1| A3B1 c3A1 c1e3 c3B1| A3B1 c1e3 f1B3 B3e1| A3B1 c3A1 c1e3 c3e1| (3a2g2f2 (3f2e2c2 e3A1 A3:| 
|: f1| e1a3 c3f1 e3a1 c3f1| e3a1 c3e1 f1B3 B3g1| a1f3 (3f2e2c2 e3f1 g3e1| (3a2g2f2 (3f2e2c2 e3A1 A3:| 
D: Jackie Dunn, Dunn to a "T", JAD-1
D: Natalie MacMaster, Fit As a Fiddle
